X: 1
T: Mairtin O'Connor's Flying Clog
M: 4/4
L: 1/8
R: reel
K: Fmaj
|:F2 (3FFF cFAc|dFBd cAGA|F2 (3FFF AFGA|BD (3DDD FDCD|
|F2 (3FFF cFAc|dFBd cAGA|BD (3DDD FDB,D|1 CEGB ABGA:|2 CEGB AFFG||
|:Ac (3ccc dcfc|dcfc dfcB|Ac (3ccc dcfc|dggf edcB|
|ABcA ~B3 D|(3DDD BD CFAF|BD (3DDD FDB,D|1 CEGB AFFG:|2 CEGB ABGA||
